X:68
T:MGYLWDR1-  Moggy Lauther
S:Neals' Country Dances, Dublin, c 1726
Q:1/4=120
L:1/4
M:C|
K:G
GzGz|GzGz|A3/2 B/ A3/2 G/|F2A2|BGGG|G2G2|d3/2 e/ d3/2 c/|\
B2c2|:d3/2 e/dB|c2B2|A3/2 B/ A3/2 E/|F2A2|B3/2 c/ B3/2 G/|\
c2(BA)|(B/c/d)(AB)|G2G2:|]

